assets/Umbrella with rain drops/Flat/umbrella_with_rain_drops_flat.svg

<svg width="32" height="32" viewBox="0 0 32 32" fill="none" xmlns="http://www.w3.org/2000/svg">
<path d="M16.98 3C16.98 2.44772 16.5323 2 15.98 2C15.4278 2 14.98 2.44772 14.98 3V22.9638H16.98V3Z" fill="#433B6B"/>
<path d="M5.5 14.98C6.78 14.98 7.9 15.68 8.5 16.71C8.6 16.87 8.77 16.97 8.96 16.97H9.02C9.21 16.97 9.38 16.87 9.48 16.71C10.09 15.68 11.2 14.98 12.48 14.98C13.76 14.98 14.88 15.68 15.48 16.71C15.58 16.87 15.75 16.97 15.94 16.97H16C16.19 16.97 16.36 16.87 16.46 16.71C17.07 15.68 18.18 14.98 19.46 14.98C20.74 14.98 21.86 15.68 22.46 16.71C22.56 16.87 22.73 16.97 22.92 16.97H22.98C23.17 16.97 23.34 16.87 23.44 16.71C24.05 15.68 25.16 14.98 26.44 14.98C27.78 14.98 28.94 15.74 29.52 16.86C29.56 16.93 29.63 16.98 29.71 16.98C29.83 16.98 29.93 16.88 29.93 16.76C29.83 9.14 23.62 3 15.97 3C8.32 3 2.12 9.14 2 16.75C2 16.87 2.1 16.97 2.22 16.97C2.3 16.97 2.38 16.92 2.41 16.85C3 15.74 4.16 14.98 5.5 14.98Z" fill="#8D65C5"/>
<path d="M15.98 21.96C16.5323 21.96 16.98 22.4077 16.98 22.96V26.5C16.98 28.4222 15.4323 29.97 13.51 29.97C11.5851 29.97 10.04 28.4096 10.04 26.5C10.04 25.9477 10.4878 25.5 11.04 25.5C11.5923 25.5 12.04 25.9477 12.04 26.5C12.04 27.3103 12.695 27.97 13.51 27.97C14.3278 27.97 14.98 27.3177 14.98 26.5V22.96C14.98 22.4077 15.4278 21.96 15.98 21.96Z" fill="#8C5543"/>
<path d="M3.22005 4.14C2.66005 4.69 2.66005 5.6 3.22005 6.16C3.78005 6.72 4.69005 6.72 5.25005 6.16L6.96005 4.44C7.52005 3.89 7.52005 2.98 6.96005 2.42C6.41005 1.86 5.50005 1.86 4.94005 2.42L3.22005 4.14ZM25.64 8.14C25.08 8.69 25.08 9.6 25.64 10.16C26.2 10.72 27.11 10.72 27.66 10.16L29.38 8.44C29.94 7.89 29.94 6.98 29.38 6.42C28.83 5.86 27.92 5.86 27.36 6.42L25.64 8.14ZM18.64 6.16C18.08 5.6 18.08 4.69 18.64 4.14L20.36 2.42C20.92 1.86 21.83 1.86 22.38 2.42C22.94 2.98 22.94 3.89 22.38 4.44L20.66 6.16C20.11 6.72 19.2 6.72 18.64 6.16ZM9.63997 8.14C9.07997 8.69 9.07997 9.6 9.63997 10.16C10.2 10.72 11.11 10.72 11.67 10.16L13.38 8.44C13.94 7.89 13.94 6.98 13.38 6.42C12.83 5.86 11.92 5.86 11.36 6.42L9.63997 8.14Z" fill="#00A6ED"/>
</svg>

<svg xmlns="http://www.w3.org/2000/svg" width="32" height="32" fill="none"><path fill="#433B6B" d="M16.98 3a1 1 0 1 0-2 0v19.964h2V3Z"/><path fill="#8D65C5" d="M5.5 14.98c1.28 0 2.4.7 3 1.73.1.16.27.26.46.26h.06c.19 0 .36-.1.46-.26a3.488 3.488 0 0 1 3-1.73c1.28 0 2.4.7 3 1.73.1.16.27.26.46.26H16c.19 0 .36-.1.46-.26a3.488 3.488 0 0 1 3-1.73c1.28 0 2.4.7 3 1.73.1.16.27.26.46.26h.06c.19 0 .36-.1.46-.26a3.488 3.488 0 0 1 3-1.73c1.34 0 2.5.76 3.08 1.88.04.07.11.12.19.12.12 0 .22-.1.22-.22C29.83 9.14 23.62 3 15.97 3 8.32 3 2.12 9.14 2 16.75c0 .12.1.22.22.22.08 0 .16-.05.19-.12a3.5 3.5 0 0 1 3.09-1.87Z"/><path fill="#8C5543" d="M15.98 21.96a1 1 0 0 1 1 1v3.54a3.463 3.463 0 0 1-3.47 3.47 3.469 3.469 0 0 1-3.47-3.47 1 1 0 0 1 2 0c0 .81.655 1.47 1.47 1.47.818 0 1.47-.652 1.47-1.47v-3.54a1 1 0 0 1 1-1Z"/><path fill="#00A6ED" d="M3.22 4.14c-.56.55-.56 1.46 0 2.02s1.47.56 2.03 0l1.71-1.72c.56-.55.56-1.46 0-2.02-.55-.56-1.46-.56-2.02 0L3.22 4.14Zm22.42 4c-.56.55-.56 1.46 0 2.02s1.47.56 2.02 0l1.72-1.72c.56-.55.56-1.46 0-2.02-.55-.56-1.46-.56-2.02 0l-1.72 1.72Zm-7-1.98c-.56-.56-.56-1.47 0-2.02l1.72-1.72c.56-.56 1.47-.56 2.02 0 .56.56.56 1.47 0 2.02l-1.72 1.72c-.55.56-1.46.56-2.02 0Zm-9 1.98c-.56.55-.56 1.46 0 2.02s1.47.56 2.03 0l1.71-1.72c.56-.55.56-1.46 0-2.02-.55-.56-1.46-.56-2.02 0L9.64 8.14Z"/></svg>
